X: 23810
T: Little Katie Kearney
R: reel
M: 4/4
K: Adorian
ed|cA~AG EAAB|~cBcd (3efg ed|cA~AG EG (3GFG|dBGB d2 ed|
cA~AG EAAB|~cBcd (3efg ed|(3cBA (3BAG DG(3GFG|dBGB d2 dB|
~cBcd eged|cBce a4|cBcd (3efg fe|dBGB d2 dB|
~c~c/ B/ cd (3efg ed|cBce a2 ~ab|(3c'ba (3bag af (3gfe|dBGB d2 ed|

